X:619
T:Rope Waltz, The (2)
S:Jimmy Shand and various
Z:Nigel Gatherer
M:3/4
R:Waltz
L:1/8
K:D
A2    | F4 A2 | D4 d2 | c4    e2 | A4 G2 | F4   A2 | D4   F2 | E6-      | E2 
A2 G2 | F4 A2 | D4 d2 | c4    e2 | A4 G2 | F3 G F2 | E3 F E2 | D2 F2 A2 | d2 
d2 e2 | f4 e2 | d4 c2 | d2 c2 B2 | A6    | g4   f2 | e4   d2 | e6-      | e2 
d2 e2 | f4 e2 | d4 c2 | d2 c2 B2 | A4 G2 | F3 G F2 | E3 F E2 | D6-      | D2 |]
